X:1
T:Rimsky-Korsakov harmonic exercises 18
T:Rimsky-Korsakov harmonic exercises 18
T:Realizations by S. Shchetnikov
T:"Practical Manual of Harmony" (1885)
C:Realizations by S. Shchetnikov
%%score { ( 1 2 ) | ( 3 4 ) }
L:1/8
M:2/2
K:C
V:1 treble nm="Piano" snm="Pno."
V:2 treble 
V:3 bass 
V:4 bass 
V:1
 z4""[Q:1/2=80]"^Harmonisation of choral melodies\n(using only those chords that were learned earlier in exercises 1-17)\n""^Example 18 (a) by Rimsky-Korsakov:""_C:" G4 | %1
"" c4"" A4 |"" G4"" G4 |"" A4"" B4 |""[Q:1/2=30] !fermata!c4""[Q:1/2=80] A4 |"" c4"" B4 | %6
"" A4"" G4 |"" A4"" d4 |""[Q:1/2=30] !fermata!B4""[Q:1/2=80] G4 |"" A4"" c4 |"" B4"" c4 | %11
"" c4"" f4 |""[Q:1/2=30] !fermata!e4""[Q:1/2=80] e4 |"" f8 |""[Q:1/2=70] d8 | %15
""[Q:1/2=20] !fermata!c4[Q:1/2=200] z4 |] %16
""[Q:1/2=80]"^Example 18 (b) by Rimsky-Korsakov:""_a:" A4"" B4 |"" c4 A4 |"" G4"" F4 | %19
""[Q:1/2=50] !fermata!E8 |""[Q:1/2=80] A4"" B4 |"" c4"" c4 |"" B4"" B4 | %23
""[Q:1/2=25] !fermata!A4""[Q:1/2=80] A4 |"" c4"" d4 |"" d4"" B4 |"" c4"" d4 | %27
""[Q:1/2=70] e4[Q:1/2=30] !fermata!e4 |""[Q:1/2=80] E4"" ^F4 |"" ^G4"" A4 |""[Q:1/2=70] B4"" ^G4 | %31
""[Q:1/2=50] !fermata!A8 |][K:G]"^Exercise 18.1"[Q:1/2=80] G4 B4 | d4 B4 | c4 d4 | B4 !fermata!G4 | %36
 d4 d4 | c4 d4 | B4 B4 | !fermata!A8 | c4 A4 | B4 B4 | A4 A4 | G4 !fermata!G4 | G4 A4 | B4 B4 | %46
 c4 A4 | !fermata!G8 |]"""^Realization 18.1""_G:" G4 B4 |"" d4"" B4 |"" c4"" d4 | %51
"" B4 !fermata!G4 |"" d4"" d4 |"" c4"" d4 |"" B4 B4 |"" !fermata!A8 |"" c4"" A4 |"" B4"" B4 | %58
"" A4""[Q:1/2=70] A4 |"" G4[Q:1/2=30] !fermata!G4 |""[Q:1/2=80] G4"" A4 |"" B4"" B4 |"" c4"" A4 | %63
""[Q:1/2=50] !fermata!G8 |]"^Exercise 18.2"[Q:1/2=80] B4 d4 | A4 B4 | G4 A4 | !fermata!B4 B4 | %68
 A4 B4 | c4 B4 | A4 A4 | !fermata!G4 e4 | ^c4 ^d4 | e4 =d4 | c4 c4 | B4 !fermata!B4 | A4 B4 | %77
 G4 A4 | G4 F4 | !fermata!E8 |]"""^Realization 18.2""_e:" B4"" d4 |"" A4"" B4 |"" G4"" A4 | %83
""[Q:1/2=30] !fermata!B4[Q:1/2=80] B4 |"" A4"" B4 |"" c4"" B4 |"" A4"" A4 | %87
""[Q:1/2=30] !fermata!G4""[Q:1/2=80] e4 |"" ^c4"" ^d4 |"" e4"" =d4 |"" c4 c4 | %91
""[Q:1/2=70] B4[Q:1/2=30] (!fermata!B4 |""[Q:1/2=80] A4)"" B4 |"" G4"" A4 |""[Q:1/2=70] G4"" F4 | %95
""[Q:1/2=50] !fermata!E8 |] %96
V:2
 z4 G4 | G4 F4 | D4 G4 | F4 F4 | G4 F4 | G4 G4 | F4 E4 | E4 D4 | D4 D4 | F4 G4 | G4 G4 | F4 A4 | %12
 G4 A4 | A8 | G8 | E4 z4 |] E4 ^G4 | A4 E4 | E4 D4 | B,8 | A,4 E4 | E4 F4 | F4 E4 | C4 D4 | E4 G4 | %25
 D4 E4 | E4 A4 | ^G4 G4 | E4 D4 | D4 E4 | F4 E4 | E8 |][K:G] x8 | x8 | x8 | x8 | x8 | x8 | x8 | %39
 x8 | x8 | x8 | x8 | x8 | x8 | x8 | x8 | x8 |] D4 G4 | A4 G4 | G4 A4 | G4 D4 | A4 F4 | G4 A4 | %54
 G4 G4 | F8 | C4 D4 | D4 E4 | E4 F4 | E4 E4 | D4 F4 | G4 G4 | A4 F4 | D8 |] x8 | x8 | x8 | x8 | %68
 x8 | x8 | x8 | x8 | x8 | x8 | x8 | x8 | x8 | x8 | x8 | x8 |] G4 A4 | A4 F4 | E4 E4 | F4 F4 | %84
 E4 G4 | A4 E4 | E4 ^D4 | E4 B4 | A4 A4 | B4 B4 | A4 A4 | F4 (F4 | E4) F4 | E4 F4 | E4 ^D4 | B,8 |] %96
V:3
 z4 B,4 | C4 C4 | B,4 C4 | C4 D4 | E4 C4 | E4 E4 | C4 C4 | C4 A,4 | G,4 B,4 | C4 C4 | D4 E4 | %11
 C4 C4 | C4 C4 | D8 | B,8 | C4 z4 |] C4 E4 | E4 C4 | C4 A,4 | ^G,8 | E,4 ^G,4 | A,4 A,4 | %22
 B,4 ^G,4 | A,4 F,4 | A,4 B,4 | A,4 ^G,4 | A,4 A,4 | B,4 B,4 | A,4 A,4 | B,4 C4 | B,4 B,4 | C8 |] %32
[K:G] z8 | z8 | z8 | z8 | z8 | z8 | z8 | z8 | z8 | z8 | z8 | z8 | z8 | z8 | z8 | z8 |] B,4 D4 | %49
 D8 | C4 A,4 | D4 B,4 | A,8 | C4 A,4 | D4 D4 | D8 | G,4 A,4 | G,4 G,4 | A,4 A,4 | C4 C4 | D4 D4 | %61
 D4 E4 | E4 D4 | B,8 |] z8 | z8 | z8 | z8 | z8 | z8 | z8 | z8 | z8 | z8 | z8 | z8 | z8 | z8 | z8 | %79
 z8 |] E4 F4 | E4 ^D4 | E4 E4 | ^D4 D4 | E4 E4 | E4 E4 | C4 A,4 | B,4 B,4 | E4 F4 | G4 G4 | E4 E4 | %91
 ^D4 (D4 | E4) B,4 | B,4 C4 | B,4 B,4 | G,8 |] %96
V:4
 z4 G,4 | E,4 F,4 | G,4 E,4 | F,4 D,4 | C,4 F,4 | C,4 E,4 | F,4 C4 | A,4 F,4 | G,4 G,4 | F,4 E,4 | %10
 G,4 C4 | A,4 F,2"" A,2 | C4 A,4 | D,8 | G,8 | C,4 z4 |] A,4 E,4 | A,,4 A,,4 | C,4 D,4 | E,8 | %20
 C,4 E,4 | A,,4 F,4 | D,4 E,4 | F,4 D,4 | A,4 G,4 | F,4 E,4 | A,4 F,4 | E,4 !fermata!E,4 | %28
 C,4 C,4 | B,,4 A,,4 | D,4 E,4 | !fermata!A,,8 |][K:G] x8 | x8 | x8 | x8 | x8 | x8 | x8 | x8 | x8 | %41
 x8 | x8 | x8 | x8 | x8 | x8 | x8 |] G,8 | F,4 G,4 | E,4 F,4 | G,8 | F,4 D,4 | E,4 F,4 | G,4 G,,4 | %55
 D,8 | E,4 F,4 | G,4 E,4 | C,4 D,4 | E,4 E,4 | B,,4 D,4 | G,4 E,4 | C,4 D,4 | G,8 |] x8 | x8 | x8 | %67
 x8 | x8 | x8 | x8 | x8 | x8 | x8 | x8 | x8 | x8 | x8 | x8 | x8 |] E,4 D,4 | C,4 B,,4 | E,4 C,4 | %83
 B,,4 B,4 | C4 B,4 | A,4 G,4 | A,4 F,4 | E,4 G,4 | G,4 F,4 | E,4 G,4 | A,4 A,,4 | B,,4 (B,,4 | %92
 ^C,4) ^D,4 | E,4 A,,4 | B,,4 B,,4 | E,8 |] %96

